X: 102
M:4/4
L:1/8
K:C
|: g2| a2 f4 f2 | g2 e4 e2 |f2 A2 A2 d2| B2 G2 G2 g2| ag f2 f2 ef|gfed c2 d2| B2 G2 g2 e2| c6:|

